X: 1
T: String Quartet in G Major opus 77 no 1 mvt 3
C: Franz Joseph Haydn
%%abc-version 2.0
%%abcx-abcm2ps-target-version 5.9.1 (29 Sep 2008)
%%abc-creator hum2abc beta
%%abcx-conversion-date 2021/02/14 14:38:25
%%abc-copyright Copyright (c) 1994, 2000 Center for Computer Assisted Research in the Humanities
%%abc-edited-by Frances Bennion
%%abcx-initial-encoding-date 1997/04/15
%%gracespace 0 6 6
%%humdrum-veritas 8854528
%%humdrum-veritas-data 438920201
%%linebreak <none>
%%barnumbers 0
L: 1/4
M: 3/4
N: Derived from op77n1-03.krn
Q: "Menuetto: Presto"
%%staves [1 2 3 4]
V: 1
V: 2
V: 3 clef=alto
V: 4 clef=bass
K: G
[V:1]G,/A,/ B,/C/ D/B,/ [I:setbarnb2] |
[V:2]G,/A,/ B,/C/ D/B,/ |
[V:3]G,/A,/ B,/C/ D/B,/ |
[V:4]G,,/A,,/ B,,/C,/ D,/B,,/ |
[V:1]G, G2 |
[V:2]G, z ^C |
[V:3]G, z G, |
[V:4]G,, z E, |
[V:1]F d2 |
[V:2]D z F |
[V:3]A, z A |
[V:4]D, z C |
[V:1]d g b |
[V:2]G z d |
[V:3]D z G |
[V:4]B, z G, |
[V:1]f/g/ a/b/ c'/a/ |
[V:2]c z F |
[V:3]A z A |
[V:4]D, z D, |
[V:1]b e'2 |
[V:2]G z B |
[V:3]D z B |
[V:4]G, z E, |
[V:1]^c'/d'/ e'/f'/ g'/e'/ |
[V:2]E z e |
[V:3]G z A, |
[V:4]A, z ^C, |
[V:1]f' a'2 |
[V:2]A z d |
[V:3]F z F |
[V:4]D, z F, |
[V:1]A a'2 |
[V:2]^c z c |
[V:3]E z E |
[V:4]G, z G, |
[V:1]D a'2 |
[V:2]d z f/d/ |
[V:3]A z F |
[V:4]F, z D,/F,/ |
[V:1]A a'2 |
[V:2]^c z g/e/ |
[V:3]G z ^c |
[V:4]A, z A,, |
[V:1]D d2 |
[V:2]f z2 |
[V:3]d z2 |
[V:4]D, z C,/A,,/ |
[V:1]G,/A,/ B,/C/ D/B,/ |
[V:2]G,/A,/ B,/C/ D/B,/ |
[V:3]G,/A,/ B,/C/ D/B,/ |
[V:4]G,,/A,,/ B,,/C,/ D,/B,,/ |
[V:1]G, G2 |
[V:2]G, z B,/^C/ |
[V:3]G, z G, |
[V:4]G,, z E, |
[V:1]F d2 |
[V:2]D z F/A/ |
[V:3]A, z A/F/ |
[V:4]D, z C |
[V:1]d g b |
[V:2]G z2 |
[V:3]G z2 |
[V:4]B, z2 |
[V:1]f/g/ a/b/ c'/a/ |
[V:2]c/B/ A/G/ F/A/ |
[V:3]A/G/ F/E/ D/A/ |
[V:4]D, z2 |
[V:1]b e'2 |
[V:2]D z B/G/ |
[V:3]G z G- |
[V:4]G, z E,/G,/ |
[V:1]^c'/d'/ e'/f'/ g'/e'/ |
[V:2]E/D/ ^C/B,/ A,/G/ |
[V:3]G/F/ E/D/ ^C/A,/ |
[V:4]A, z A,,/^C,/ |
[V:1]f' a'2 |
[V:2]F/E/ F/A/ G/F/ |
[V:3]D/^C/ D/F/ E/D/ |
[V:4]D, z2 |
[V:1]A a'2 |
[V:2]E/D/ E/F/ G/E/ |
[V:3]^C/B,/ C/D/ E/C/ |
[V:4]G, z2 |
[V:1]D a'2 |
[V:2]F/G/ A/B/ ^c/d/ |
[V:3]D/E/ F/G/ A/B/ |
[V:4]F, z2 |
[V:1]A a'2 |
[V:2]e/f/ g/a/ b/^c'/ |
[V:3]^c/d/ e/f/ g/e/ |
[V:4]A,, z2 |
[V:1]D d2 |
[V:2]d' d'2 |
[V:3]f f2 |
[V:4]D, z2 |
[V:1]D/E/ F/G/ A/F/ |
[V:2]F3 |
[V:3]A3 |
[V:4]C, C C |
[V:1]D d2 |
[V:2]G3 |
[V:3]G3 |
[V:4]B,, B, B, |
[V:1]=F =f2 |
[V:2]c3 |
[V:3]=F A c |
[V:4]A,, A, A, |
[V:1]e d'2 |
[V:2]B3 |
[V:3]e3 |
[V:4]^G,, ^G,2 |
[V:1]A3- |
[V:2]A/B/ c/d/ e/c/ |
[V:3]C3 |
[V:4]z3 |
[V:1]A3- |
[V:2]B =f2 |
[V:3]D3 |
[V:4]z3 |
[V:1]A A ^G |
[V:2]B/c/ d/e/ =f/d/ |
[V:3]E3 |
[V:4]z3 |
[V:1]A/^G/ A/B/ c/B/ |
[V:2]c/B/ c/d/ e/d/ |
[V:3]A, z2 |
[V:4]z3 |
[V:1]c/d/ e/=f/ g/e/ |
[V:2]c3- |
[V:3]G,3 |
[V:4]E,3 |
[V:1]d a2 |
[V:2]c3- |
[V:3]A,2 D |
[V:4]=F,3 |
[V:1]d/e/ =f/g/ a/f/ |
[V:2]c c B |
[V:3]D2 D/G/ |
[V:4]G,3 |
[V:1]e c'2 |
[V:2]c e2 |
[V:3]G E/D/ C/B,/ |
[V:4]C/D/ C/B,/ A,/G,/ |
[V:1]d c' b |
[V:2]d a g |
[V:3]A, z D |
[V:4]F,/D,/ E,/F,/ G,/G,,/ |
[V:1]d c' b |
[V:2]d a g |
[V:3]A D D |
[V:4]F,/D,/ E,/F,/ G,/G,,/ |
[V:1]a a3/ g/ |
[V:2]E e e |
[V:3]E C ^C |
[V:4]C,/B,,/ C,/C,,/ ^C,/A,,/ |
[V:1]f d3/ ^d/ |
[V:2]A B/c/ B/A/ |
[V:3]D2 D/C/ |
[V:4]D,3- |
[V:1]e/d/ c/B/ A/c/ |
[V:2]^G A c |
[V:3]B, C E |
[V:4]D,3- |
[V:1]d/c/ B/A/ G/^G/ |
[V:2]F G B/=F/ |
[V:3]A, B, D |
[V:4]D,3 |
[V:1]A/B/ c/d/ c/F/ |
[V:2]E/D/ C/B,/ C/_E/ |
[V:3]C/B,/ A,/^G,/ A,/C/ |
[V:4]D,,3- |
[V:1]G/A/ B/c/ B/d/ |
[V:2]D/C/ B,/A,/ B,/G,/ |
[V:3]B,/A,/ G,/F,/ G,/B,/ |
[V:4]D,,3- |
[V:1]g/f/ e/d/ ^c/B/ |
[V:2]^C3- |
[V:3]E,3 |
[V:4]D,,3- |
[V:1]A/G/ F/E/ D/^C/ |
[V:2]C3 |
[V:3][G,3E,3] |
[V:4]D,,3- |
[V:1]D/E/ F/G/ A/F/ |
[V:2]D z2 |
[V:3]F, z2 |
[V:4]D,, z2 |
[V:1]G/F/ E/D/ ^C/E/ |
[V:2]^C z2 |
[V:3]E, z2 |
[V:4]D,, z2 |
[V:1]D/E/ F/G/ A/F/ |
[V:2]D z2 |
[V:3]F, z2 |
[V:4]D,, z2 |
[V:1]G/F/ E/D/ ^C/E/ |
[V:2]^C z2 |
[V:3]E, z2 |
[V:4]D,, z2 |
[V:1]D/E/ F/G/ A/F/ |
[V:2]D z2 |
[V:3]F, z2 |
[V:4]D,, z2 |
[V:1]D/E/ F/G/ A/F/ |
[V:2]D z2 |
[V:3]F, z2 |
[V:4]D,, z2 |
[V:1]D/A/ c/B/ A/G/ |
[V:2]D z2 |
[V:3]F, z2 |
[V:4]D,, z2 |
[V:1]F/E/ D/C/ B,/A,/ |
[V:2]z3 |
[V:3]z3 |
[V:4]z3 |
[V:1]G,/A,/ B,/C/ D/B,/ |
[V:2]G,/A,/ B,/C/ D/B,/ |
[V:3]G,/A,/ B,/C/ D/B,/ |
[V:4]G,,/A,,/ B,,/C,/ D,/B,,/ |
[V:1]G, G2 |
[V:2]G, z B,/^C/ |
[V:3]G, z G, |
[V:4]G,, z E, |
[V:1]F d2 |
[V:2]D z F |
[V:3]A, z A |
[V:4]D, z C |
[V:1]d g b |
[V:2]G z d |
[V:3]D z G |
[V:4]B, z G, |
[V:1]f/g/ a/b/ c'/a/ |
[V:2]c z F |
[V:3]A z A |
[V:4]D, z D, |
[V:1]b d'2 |
[V:2]G z B |
[V:3]D z D |
[V:4]G, z G,, |
[V:1]c'/b/ a/g/ f/a/ |
[V:2]A z c |
[V:3]F z A/F/ |
[V:4]D, z D, |
[V:1]g b2 |
[V:2]B z G |
[V:3]G z G |
[V:4]E, z E, |
[V:1]a/g/ f/g/ =f/d/ |
[V:2]d z G |
[V:3]G, z D |
[V:4]B,, z B,, |
[V:1]=f/e/ ^d/e/ g/e/ |
[V:2]G, z2 |
[V:3]C z2 |
[V:4]C, z2 |
[V:1]d/c/ e/B/ c/A/ |
[V:2]E z2 |
[V:3]A, z2 |
[V:4]C, z2 |
[V:1]G d2 |
[V:2]B, z B |
[V:3]D, z G |
[V:4]D, z2 |
[V:1]F d2- |
[V:2]c z F |
[V:3]A z C |
[V:4]D, z2 |
[V:1]d G g- |
[V:2]G,/A,/ B,/C/ D/B,/ |
[V:3]D,3 |
[V:4]B,,3 |
[V:1]g G g- |
[V:2]A,/B,/ C/D/ E/C/ |
[V:3]E,3 |
[V:4]C,3 |
[V:1]g G g- |
[V:2]B,/C/ D/E/ =F/B,/ |
[V:3]=F,3 |
[V:4]D,3 |
[V:1]g e d/c/ |
[V:2]C/D/ E/F/ G/A/ |
[V:3]E, z2 |
[V:4]E, C, B,,/A,,/ |
[V:1]B/c/ d/e/ f/g/ |
[V:2]G/A/ B/c/ d/e/ |
[V:3]z3 |
[V:4]G,, z2 |
[V:1]a/b/ c'/d'/ e'/f'/ |
[V:2]f/g/ a/b/ c'/a/ |
[V:3]c/B/ A/G/ F/D/ |
[V:4]D,, z2 |
[V:1]g' g'2 |
[V:2]b/a/ b/d'/ c'/b/ |
[V:3]G/F/ G/B/ A/G/ |
[V:4]z3 |
[V:1]d'' d''2 |
[V:2]a z2 |
[V:3]F/G/ A/F/ G/A/ |
[V:4]D/E/ F/D/ E/F/ |
[V:1]d'' d''2 |
[V:2]b/a/ b/d'/ c'/b/ |
[V:3]G/F/ G/B/ A/G/ |
[V:4]G z2 |
[V:1]d'' d''2 |
[V:2]a/b/ c'/b/ c'/a/ |
[V:3]D D2 |
[V:4]F/G/ A/G/ A/F/ |
[V:1]G, G, z |
[V:2]b b z |
[V:3]D D z |
[V:4]G G z |
[V:1]A A z |
[V:2]F F z |
[V:3]D D z |
[V:4]D, D, z |
[V:1]B B z |
[V:2]G G z |
[V:3]D D z |
[V:4]G,, G,, z |
[V:1]F3 |
[V:2]C3 |
[V:3]A,3 |
[V:4]D,,3 |
[V:1]G z2 |
[V:2]B, z2 |
[V:3]B, z2 |
[V:4]G,, z2 |
[V:1]F3 |
[V:2]C3 |
[V:3]A,3 |
[V:4]D,,3 |
[V:1]G3- |
[V:2]_B,3- |
[V:3]G,3- |
[V:4]_E,, _E, E, |
[V:1]G =F _E |
[V:2]B, _B, B, |
[V:3]G, G, G, |
[V:4]_E, E, E, |
[V:1]D _E =F |
[V:2]_B, B, B, |
[V:3]_A, A, A, |
[V:4]_E, E, E, |
[V:1]_B, C D |
[V:2]_B, B, B, |
[V:3]_A, A, A, |
[V:4]_E, E, E, |
[V:1]_E z G |
[V:2]_B, B, B, |
[V:3]G, G, G, |
[V:4]_E, E, E, |
[V:1]_B z _e |
[V:2]_B, B, B, |
[V:3]G, G, G, |
[V:4]_E, E, E, |
[V:1]g z _b |
[V:2]_B, B, B, |
[V:3]G, G, G, |
[V:4]_E, E, E, |
[V:1]g z _b |
[V:2]_B, B, B, |
[V:3]G, G, G, |
[V:4]_E, E, E, |
[V:1]g z _b |
[V:2]_B, B, B, |
[V:3]G, G, G, |
[V:4]_E, E, E, |
[V:1]g z _B, |
[V:2]_B, B, B, |
[V:3]G, G, G, |
[V:4]_E, E, E, |
[V:1]G3- |
[V:2]_B,/B,/ B,/B,/ B,/B,/ |
[V:3]G,/G,/ G,/G,/ G,/G,/ |
[V:4]_E,,/_E,/ E,/E,/ E,/E,/ |
[V:1]G =F _E |
[V:2]_B, B, B, |
[V:3]G, G, G, |
[V:4]_E, E, E, |
[V:1]D _E =F |
[V:2]_B, B, B, |
[V:3]_A, A, A, |
[V:4]_E, E, E, |
[V:1]_B, C D |
[V:2]_B, B, B, |
[V:3]_A, A, A, |
[V:4]_E, E, E, |
[V:1]_E z G |
[V:2]_B, B, B, |
[V:3]G, G, G, |
[V:4]_E, E, E, |
[V:1]_B z _e |
[V:2]_B, B, B, |
[V:3]G, G, G, |
[V:4]_E, E, E, |
[V:1]g z _b |
[V:2]_B, B, B, |
[V:3]G, G, G, |
[V:4]_E, E, E, |
[V:1]g z _b |
[V:2]_B, B, B, |
[V:3]G, G, G, |
[V:4]_E, E, E, |
[V:1]g z _b |
[V:2]_B, B, B, |
[V:3]G, G, G, |
[V:4]_E, E, E, |
[V:1]g z c' |
[V:2]_B, B, z |
[V:3]G, G, z |
[V:4]_E, E, z |
[V:1]g2 _e |
[V:2][_E/G,/][E/G,/][E/G,/][E/G,/] [E/G,/][G,/E/]|
[V:3][G,/_E,/][E,/G,/][G,/E,/][G,/E,/] [E,/G,/][G,/E,/]|
[V:4]C,,/C,/ C,/C,/ C,/C,/ |
[V:1]c G _E |
[V:2][_EG,] E E |
[V:3][G,_E,] [E,G,] [G,E,] |
[V:4]C, C, C, |
[V:1]D _E =F |
[V:2]B, B, B, |
[V:3][_A,=F,] [A,F,] [F,A,] |
[V:4]C, C, C, |
[V:1]B, C D |
[V:2]B, B, B, |
[V:3][_A,=F,] [A,F,] [A,F,] |
[V:4]C, C, C, |
[V:1]C2 _E |
[V:2]C C C |
[V:3][_E,G,] [E,G,] [E,G,] |
[V:4]C, C, C, |
[V:1]G2 c |
[V:2]C C C |
[V:3][_E,G,] [G,E,] [G,E,] |
[V:4]C, C, C, |
[V:1]d _e =f |
[V:2]B, B, B, |
[V:3][=F,_A,] [A,F,] [A,F,] |
[V:4]C, C, C, |
[V:1]B c d |
[V:2]B, B, B, |
[V:3][_A,=F,] [A,F,] [A,F,] |
[V:4]C, C, C, |
[V:1]c2 _e |
[V:2]C C C |
[V:3][G,_E,] [G,E,] [G,E,] |
[V:4]C, C, C, |
[V:1]g2 g |
[V:2]C C C |
[V:3][G,_E,] _E C |
[V:4]C, C, C, |
[V:1]f g a |
[V:2]C/C/ C/C/ C/C/ |
[V:3]A,/A,/ A,/A,/ A,/A,/ |
[V:4]D,/D,/ D,/D,/ D,/D,/ |
[V:1]d e f |
[V:2]C C C |
[V:3]A, A, A, |
[V:4]D, D, D, |
[V:1]g2 a |
[V:2]_B, B, B, |
[V:3]G, G, G, |
[V:4]D, D, D, |
[V:1]_b2 b |
[V:2]_B, B, B, |
[V:3]G, G, G, |
[V:4]D, D, D, |
[V:1]a _b c' |
[V:2]C C C |
[V:3]F, F, F, |
[V:4]D, D, D, |
[V:1]d e f |
[V:2]C C C |
[V:3]F, G, A, |
[V:4]D, D, D, |
[V:1]g3- |
[V:2]_B, B, B, |
[V:3]G, G, G, |
[V:4]D, D, D, |
[V:1]g2 =f |
[V:2]_B, B, B, |
[V:3]G, G, G, |
[V:4]_D, D, D, |
[V:1]e =f g |
[V:2]_B, B, B, |
[V:3]G, G, G, |
[V:4]C, C, C, |
[V:1]c d e |
[V:2]_B, B, B, |
[V:3]G, G, G, |
[V:4]C, C, C, |
[V:1]=f3- |
[V:2]_A, A, A, |
[V:3]=F, F, F, |
[V:4]C, C, C, |
[V:1]f2 _e |
[V:2]_A, A, A, |
[V:3]=F, F, F, |
[V:4]_C, C, C, |
[V:1]d _e =f |
[V:2]_A, A, A, |
[V:3]=F, F, F, |
[V:4]_B,, B,, B,, |
[V:1]_B, C/D/ _E/=F/ |
[V:2]_A, A, A, |
[V:3]=F, F, F, |
[V:4]_B,, B,, B,, |
[V:1]G3- |
[V:2]G,/_B,/ B,/B,/ B,/B,/ |
[V:3]G,/G,/ G,/G,/ G,/G,/ |
[V:4]_E,,/_E,/ E,/E,/ E,/E,/ |
[V:1]G =F _E |
[V:2]_B, B, B, |
[V:3]G, G, G, |
[V:4]_E, E, E, |
[V:1]D _E =F |
[V:2]_B, B, B, |
[V:3]_A, A, A, |
[V:4]_E, E, E, |
[V:1]_B, C D |
[V:2]_B, B, B, |
[V:3]_A, A, A, |
[V:4]_E, E, E, |
[V:1]_E z G |
[V:2]_B, B, B, |
[V:3]G, G, G, |
[V:4]_E, E, E, |
[V:1]_B z _e |
[V:2]_B, B, B, |
[V:3]G, G, G, |
[V:4]_E, E, E, |
[V:1]g z _b |
[V:2]_B, B, B, |
[V:3]G, G, G, |
[V:4]_E, E, E, |
[V:1]g z _b |
[V:2]_B, B, B, |
[V:3]G, G, G, |
[V:4]_E, E, E, |
[V:1]g z _b |
[V:2]_B, B, B, |
[V:3]G, G, G, |
[V:4]_E, E, E, |
[V:1]g z c' |
[V:2]_B, B, z |
[V:3]G, G, z |
[V:4]_E, E, z |
[V:1]g2 _e |
[V:2][_E/G,/][E/G,/][G,/E/][G,/E/] [E/G,/][G,/E/]|
[V:3][G,/_E,/][G,/E,/][G,/E,/][G,/E,/] [G,/E,/][G,/E,/]|
[V:4][C,,/C,/][C,,/C,/][C,,/C,/][C,/C,,/] [C,,/C,/][C,/C,,/]|
[V:1]c G _E |
[V:2][_EG,] E E |
[V:3][G,_E,] [G,E,] [G,E,] |
[V:4][C,,C,] C, C, |
[V:1]D _E =F |
[V:2]B, B, B, |
[V:3][_A,=F,] [F,A,] [F,A,] |
[V:4]C, C, C, |
[V:1]B, C D |
[V:2]B, B, B, |
[V:3][=F,_A,] [F,A,] [F,A,] |
[V:4]C, C, C, |
[V:1]C2 _E |
[V:2]C C C |
[V:3][G,_E,] [G,E,] [G,E,] |
[V:4]C, C, C, |
[V:1]G2 c |
[V:2]C C C |
[V:3][G,_E,] [G,E,] [G,E,] |
[V:4]C, C, C, |
[V:1]d _e =f |
[V:2]B, B, B, |
[V:3][_A,=F,] [F,A,] [F,A,] |
[V:4]C, C, C, |
[V:1]B c d |
[V:2]B, B, B, |
[V:3][=F,_A,] [F,A,] [F,A,] |
[V:4]C, C, C, |
[V:1]c2 _e |
[V:2]C C C |
[V:3][G,_E,] [G,E,] [G,E,] |
[V:4]C, C, C, |
[V:1]g2 g |
[V:2]C C C |
[V:3][G,_E,] _E C |
[V:4]C, C, C, |
[V:1]f g a |
[V:2]C/C/ C/C/ C/C/ |
[V:3]A,/A,/ A,/A,/ A,/A,/ |
[V:4]D,/D,/ D,/D,/ D,/D,/ |
[V:1]d e f |
[V:2]C C C |
[V:3]A, A, A, |
[V:4]D, D, D, |
[V:1]g2 a |
[V:2]_B, B, B, |
[V:3]G, G, G, |
[V:4]D, D, D, |
[V:1]_b2 b |
[V:2]_B, B, B, |
[V:3]G, G, G, |
[V:4]D, D, D, |
[V:1]a _b c' |
[V:2]C C C |
[V:3]F, F, F, |
[V:4]D, D, D, |
[V:1]d e f |
[V:2]C C C |
[V:3]F, G, A, |
[V:4]D, D, D, |
[V:1]g3- |
[V:2]_B, B, B, |
[V:3]G, G, G, |
[V:4]D, D, D, |
[V:1]g2 =f |
[V:2]_B, B, B, |
[V:3]G, G, G, |
[V:4]_D,/D,/ D,/D,/ D,/D,/ |
[V:1]e =f g |
[V:2]_B, B, B, |
[V:3]G, G, G, |
[V:4]C, C, C, |
[V:1]c d e |
[V:2]_B, B, B, |
[V:3]G, G, G, |
[V:4]C, C, C, |
[V:1]=f3- |
[V:2]_A, A, A, |
[V:3]=F, F, F, |
[V:4]C, C, C, |
[V:1]f2 _e |
[V:2]_A, A, A, |
[V:3]=F, F, F, |
[V:4]_C,/C,/ C,/C,/ C,/C,/ |
[V:1]d _e =f |
[V:2]_A, A, A, |
[V:3]=F, F, F, |
[V:4]_B,, B,, B,, |
[V:1]_B, C/D/ _E/=F/ |
[V:2]_A, A, A, |
[V:3]=F, F, F, |
[V:4]_B,, B,, B,, |
[V:1]G3- |
[V:2]G,/_B,/ B,/B,/ B,/B,/ |
[V:3]G,/G,/ G,/G,/ G,/G,/ |
[V:4]_E,,/E,,/ E,,/E,,/ E,,/E,,/ |
[V:1]G =F _E |
[V:2]_B, B, B, |
[V:3]G, G, G, |
[V:4]_E,, E,, E,, |
[V:1]D _E =F |
[V:2]_B, B, B, |
[V:3]_A, A, A, |
[V:4]_E,, E,, E,, |
[V:1]_B, C D |
[V:2]_B, B, B, |
[V:3]_A, A, A, |
[V:4]_E,, E,, E,, |
[V:1]_E z G |
[V:2]_B, B, B, |
[V:3]G, G, G, |
[V:4]_E, E, E, |
[V:1]_B z _e |
[V:2]_B, B, B, |
[V:3]G, G, G, |
[V:4]_E, E, E, |
[V:1]g z _b |
[V:2]_B, B, B, |
[V:3]G, G, G, |
[V:4]_E, E, E, |
[V:1]g z _b |
[V:2]_B, B, B, |
[V:3]G, G, G, |
[V:4]_E, E, E, |
[V:1]g z _b |
[V:2]_B, B, B, |
[V:3]G, G, G, |
[V:4]_E, E, E, |
[V:1]g z c' |
[V:2]_B, B, G, |
[V:3]G, G, G, |
[V:4]_E, E, E, |
[V:1]g z c' |
[V:2]C C C |
[V:3]G, G, G, |
[V:4]_E, E, E, |
[V:1]g z g |
[V:2]C C C |
[V:3]G, G, G, |
[V:4]_E, E, E, |
[V:1]^c'2 g |
[V:2]_B,/B,/ B,/B,/ B, |
[V:3]G,/G,/ G,/G,/ G, |
[V:4]_E,/E,/ E,/E,/ E, |
[V:1]^c'2 g |
[V:2]_B,/B,/ B,/B,/ ^C |
[V:3]G,/G,/ G,/G,/ G, |
[V:4]_E,/E,/ E,/E,/ E, |
[V:1]d'2 d |
[V:2]D/D/ D/D/ _B, |
[V:3]F,/F,/ F,/F,/ G, |
[V:4]D,/D,/ D,/D,/ D, |
[V:1]d'2 d |
[V:2]A,/A,/ A,/A,/ _B, |
[V:3]F,/F,/ F,/F,/ G, |
[V:4]D,/D,/ D,/D,/ D, |
[V:1]d'2 D |
[V:2]A,/A,/ A,/A,/ _B, |
[V:3]F,/F,/ F,/F,/ G, |
[V:4]D,,/D,,/ D,,/D,,/ D,, |
[V:1]d2 D |
[V:2]A,/A,/ A,/A,/ _B, |
[V:3]F,/F,/ F,/F,/ G, |
[V:4]D,,/D,,/ D,,/D,,/ D,, |
[V:1]d z2 |
[V:2]A, z2 |
[V:3]F, z2 |
[V:4]D,, z2 |
[V:1]d z2 |
[V:2]A, z2 |
[V:3]F, z2 |
[V:4]D,, z2 |
[V:1]d z2 |
[V:2]A, z2 |
[V:3]F, z2 |
[V:4]D,, z2 |
[V:1]z3 |]
[V:2]z3 |]
[V:3]z3 |]
[V:4]z3 |]

